X: 21487
T: Key, The
R: reel
M: 4/4
K: Aminor
ecAB cd/c/Ae|fedc BAGF|EAcA FAcA|Beef edcd|
ecAB cd/c/Ae|fedc BAGF|EAcB- BAGF|EAAG A2cd|
ecAB cd/c/Ae|fedc BAGF|EAcF- FAcB-|Beef edcd|
ecAB cd/c/Ae|fedc BAGF|EAcA BAGF|EAAG A2cd|:
eac'a dgbg|cege d2cd|edcB cBAc|Be-ef edcd|
ea~a2 dg~g2|cffc B2cd|edcB cBAG|EAAG A2cd:|

